web/packages/design/src/ResourceIcon/assets/adobemarketo.svg

<svg width="72" height="72" viewBox="0 0 72 72" fill="none" xmlns="http://www.w3.org/2000/svg">
<g clip-path="url(#clip0_16907_11687)">
<path d="M12.75 0.901855H59.25C66.3 0.901855 72 6.60186 72 13.6519V58.3519C72 65.4019 66.3 71.1019 59.25 71.1019H12.75C5.7 71.1019 0 65.4019 0 58.3519V13.6519C0 6.60186 5.7 0.901855 12.75 0.901855Z" fill="#EB1000"/>
<path d="M55.9805 53.7016H47.4305C46.6805 53.7016 45.9905 53.2816 45.6905 52.5616L36.4205 30.8416C36.3605 30.6316 36.1205 30.5116 35.9105 30.5716C35.7905 30.6016 35.6705 30.7216 35.6405 30.8416L29.8505 44.6116C29.7305 44.8516 29.8505 45.1516 30.1205 45.2416C30.1805 45.2716 30.2405 45.2716 30.3005 45.2716H36.6605C37.0505 45.2716 37.4105 45.5116 37.5605 45.8716L40.3505 52.0816C40.5905 52.6516 40.3205 53.3416 39.7505 53.5816C39.6005 53.6416 39.4505 53.6716 39.3005 53.6716H16.1105C15.5405 53.6716 15.0605 53.1916 15.0605 52.6216C15.0605 52.4716 15.0905 52.3516 15.1505 52.2016L29.8805 17.1316C30.1805 16.3816 30.9305 15.8716 31.7405 15.9016H40.2305C41.0405 15.9016 41.7905 16.3816 42.0905 17.1316L56.9405 52.2016C57.1805 52.7416 56.9105 53.3716 56.4005 53.5816C56.2505 53.6416 56.1305 53.6716 55.9805 53.7016Z" fill="white"/>
</g>
<defs>
<clipPath id="clip0_16907_11687">
<rect width="72" height="72" fill="white" transform="translate(0 0.00195312)"/>
</clipPath>
</defs>
</svg>

<svg xmlns="http://www.w3.org/2000/svg" width="72" height="72" fill="none" viewBox="0 0 72 72"><g clip-path="url(#clip0_16907_11687)"><path fill="#eb1000" d="M12.75.902h46.5C66.3.902 72 6.602 72 13.652v44.7c0 7.05-5.7 12.75-12.75 12.75h-46.5C5.7 71.102 0 65.402 0 58.352v-44.7C0 6.602 5.7.902 12.75.902"/><path fill="#fff" d="M55.98 53.702h-8.55c-.75 0-1.44-.42-1.74-1.14l-9.27-21.72c-.06-.21-.3-.33-.51-.27-.12.03-.24.15-.27.27l-5.79 13.77c-.12.24 0 .54.27.63.06.03.12.03.18.03h6.36c.39 0 .75.24.9.6l2.79 6.21c.24.57-.03 1.26-.6 1.5q-.225.09-.45.09H16.11c-.57 0-1.05-.48-1.05-1.05 0-.15.03-.27.09-.42l14.73-35.07c.3-.75 1.05-1.26 1.86-1.23h8.49c.81 0 1.56.48 1.86 1.23l14.85 35.07c.24.54-.03 1.17-.54 1.38-.15.06-.27.09-.42.12"/></g><defs><clipPath id="clip0_16907_11687"><path fill="#fff" d="M0 .002h72v72H0z"/></clipPath></defs></svg>
